lib/flags/l/584.svg

<svg xmlns="http://www.w3.org/2000/svg" fill="none" viewBox="0 0 32 24"><mask id="584_svg__a" width="32" height="24" x="0" y="0" mask-type="alpha" maskUnits="userSpaceOnUse"><path fill="#fff" d="M0 0H32V24H0z"/></mask><g mask="url(#584_svg__a)"><path fill="#3D58DB" fill-rule="evenodd" d="M0 0V24H32V0H0Z" clip-rule="evenodd"/><mask id="584_svg__b" width="32" height="24" x="0" y="0" mask-type="alpha" maskUnits="userSpaceOnUse"><path fill="#fff" fill-rule="evenodd" d="M0 0V24H32V0H0Z" clip-rule="evenodd"/></mask><g mask="url(#584_svg__b)"><path fill="#F7FCFF" fill-rule="evenodd" d="M8 11L7.183 13.9441L7.19061 10.8888L5.60959 13.5033L6.44125 10.5633L4.21347 12.6543L5.80749 10.0477L3.09818 11.4601L5.33634 9.3802L2.34643 10.0093L5.06275 8.61037L2.01399 8.40945L5.00699 7.79527L2.1255 6.77926L5.17322 6.99536L2.67269 5.23961L5.54909 6.26996L3.61498 3.90468L6.10674 5.67287L4.8825 2.87348L6.8048 5.24837L6.38122 2.2225L7.5915 5.02794L8 2L8.4085 5.02794L9.61878 2.2225L9.1952 5.24837L11.1175 2.87348L9.89326 5.67287L12.385 3.90468L10.4509 6.26996L13.3273 5.23961L10.8268 6.99536L13.8745 6.77926L10.993 7.79527L13.986 8.40945L10.9373 8.61037L13.6536 10.0093L10.6637 9.3802L12.9018 11.4601L10.1925 10.0477L11.7865 12.6543L9.55875 10.5633L10.3904 13.5033L8.80939 10.8888L8.817 13.9441L8 11Z" clip-rule="evenodd"/><path fill="#fff" d="M-0.781982 24.7453L33.2583 1.21484V8.88561L-0.781982 24.7453Z"/><path fill="#E2AE57" d="M-0.781982 24.7453L33.2583 -4.78516V2.88561L-0.781982 24.7453Z"/></g></g></svg>

<svg xmlns="http://www.w3.org/2000/svg" fill="none" viewBox="0 0 32 24"><mask id="584_svg__a" width="32" height="24" x="0" y="0" maskUnits="userSpaceOnUse"><path fill="#fff" d="M0 0h32v24H0z"/></mask><g mask="url(#584_svg__a)"><path fill="#3D58DB" fill-rule="evenodd" d="M0 0v24h32V0H0z" clip-rule="evenodd"/><mask id="584_svg__b" width="32" height="24" x="0" y="0" maskUnits="userSpaceOnUse"><path fill="#fff" fill-rule="evenodd" d="M0 0v24h32V0H0z" clip-rule="evenodd"/></mask><g mask="url(#584_svg__b)"><path fill="#F7FCFF" fill-rule="evenodd" d="M8 11l-.817 2.944.008-3.055-1.581 2.614.831-2.94-2.228 2.091 1.594-2.606-2.709 1.412 2.238-2.08-2.99.63 2.717-1.4-3.049-.2 2.993-.615L2.126 6.78l3.047.216-2.5-1.755 2.876 1.03-1.934-2.365 2.492 1.768-1.224-2.8 1.922 2.375-.424-3.026 1.21 2.806L8 2l.409 3.028 1.21-2.805-.424 3.025 1.922-2.375-1.224 2.8 2.492-1.768-1.934 2.365 2.876-1.03-2.5 1.755 3.047-.216-2.881 1.016 2.993.614-3.049.201 2.717 1.4-2.99-.63 2.238 2.08-2.71-1.412 1.595 2.606-2.228-2.09.831 2.94-1.58-2.615.007 3.055L8 11z" clip-rule="evenodd"/><path fill="#fff" d="M-.782 24.745l34.04-23.53v7.67l-34.04 15.86z"/><path fill="#E2AE57" d="M-.782 24.745l34.04-29.53v7.67l-34.04 21.86z"/></g></g></svg>
